X:12
T: Vékony héja, de vékony héja van a piros almának
M:1/4
L:1/4
K:D
dAGF | dAGF | GE A<G | F<D D z |
d A/A/ G F/F/ | d A/A/ G F | G E A A/G/ | F<D D z |
d d/e/ d d/c/ | d f e d/d/ | c B A/A/B/c/ | d d c B/c/ |
dAGF | ddcB/c/ | dAGF | A2 E2 |
A/G/ F/E/ | A<D E>F | E<D D z |

